!!!OTL: Bad Girl's Lament
!!!ONM: 102.
**kern
*clefG2
!Modal -- Conklin/Pearce 
*k[b-e-a-]
*f:
*M3/4
*>[A,A]
*>norep[A]
*>A
=1!|:
*MM110
{4.f
8f
4f
=2
(4a-
4g)
4f
=3
[4.b-
8b-]
4b-
=4
4g
4f
4e-}
=5
{[4.f
8f]
4f
=6
4a-
4g
4f
=7
4.b-
8b-
4b-
=8
4.cc
8r}
{8b-
8b-
=9
2ff
4ff
=10
[4cc
4cc]
4cc
=11
(4.ee-
8a-)
4a-
=12
4g
4f}
{4e-
=13
4.f
8f
4f
=14
4ee-
4dd
4ee-
=15
4g
4f
4e-
=16
2.f}
==:|!
*-
!!!CNT: Folksongs of Maritime Canada
!!!MRD: 1928///-1932///
!!!OCL: Helen Creighton
!!!YOR: Songs and Ballads from Nova Scotia
!!!PPR: J.M. Dent & Sons, Limited
!!!PPP: Toronto, Canada
!!!PDT: 1932///
!!!reprint: Dover Publications, 1992: ISBN 0-486-21703-5
!!!ENC1: Craig Stuart Sapp (music and bibliographic data)                       
!!!ENC2: Marcus Pearce (phrase markings and key designations)                   
!!!ENC3: Darrell Conklin (phrase markings and key designations)   
!!!END: 2002/04/10/
!!!EEV: 2004/06/05
!!!MPN: Mr. Edward Hartley
!!!PPG: 219
!!!EFL: 103/152
!!!ARE: Canada; Nova Scotia
!!!verses: 5
!!!VTS: 4208504801
